!!!COM: Fe/licien David
!!!CNT: Francais
!!!TXO: Francais
!!!OTL: Eveillez~Vous
!!!LYR: M.me de la Renaudie\re
!!!ENC: Jacob Pegg
!!!YOR: Romantic French Song 1830-1870, David Tunley, ed., New York: Garland Publishing, Inc., 1995
!!!ODT: 1845/
!!NB: Vocal melody and text only encoded.
!!NB: Only first strophe encoded.
**kern	**silbe
*clef G2	*
*k[b-e-a-]	*
*M3/4	*
=1	=1
2.r	.
=2	=2
4r	.
4r	.
{4b-	{E-
=3	=3
8.b-	-veil-
16cc	-lez~
2cc	~vous,
=4	=4
(8.cc	bel-
16ee-)	|
2ee-	-le,
=5	=5
4b-	Ma
4b-	belle,
4cc	aux
=6	=6
8.b-	grands
16a-	yeux
2g}	bleus,}
=7	=7
{8.f	{D'un
16f	a-
4f	-mant
4g	fi-
=8	=8
(4.a-	-de\-
8b-)	|
4cc	-le
=9	=9
8.b-	E-
16b-	-cou-
4.gg	-tez
8ff	les
=10	=10
2.ee-}	voeux!}
=11	=11
2.r	.
=12	=12
2.r	.
=13	=13
2.r	.
=14	=14
2.r	.
=15	=15
{8dd	{Si
8dd	j'e/-
8dd	-tais
8dd	l'oi-
8cc	-seau
8dd	que
=16	=16
(4ee-	chan-
4cc)	|
4dd	-te
=17	=17
8dd	sous
8dd	la
8dd	feuil-
8dd	-le/e
8cc	o-
8dd	-do-
=18	=18
(4ff	-ran-
4ee-)	|
4dd}	-te,}
=19	=19
{8.dd	{Pre\s
16cc	de
2b-	vous
=20	=20
!!encoded precisely as written
(16b-q	pre\s
16ccq	|
8.dd)	|
16cc	de
2b-}	vous}
=21	=21
{8a-	{Dans
8a-	vo-
8a-	-tre a^-
8a-	-me, o^
8g	ma
8a-	bien
=22	=22
(4cc	che\-
4b-)	|
4g}	-re,}
=23	=23
{8a-	{J'e/-
8a-	-veil-
8a-	-le-
8a-	-rais
8g	pour
8a-	vous
=24	=24
!!encoded precisely as written
(4cc	plai-
4b-)	|
(16ccq	|
16b-q	|
4g)}	-re}
=25	=25
{8.b-	{Tous
16b-	les
4b-	re^-
4cc	-ves
=26	=26
(ccq	les
8.dd)	|
16dd	plus
2dd	doux,
=27	=27
8.dd	tous
16cc	les
4cc	re^-
4gg	-ves
=28	=28
8.ff	les
16b-	plus
[2b-	doux.
=29	=29
2b-]}	|}
4r	.
*-	*-
